X: 1
T: Horgalåten
C: Blecko Anders
R: Hambo
S: Utlärd av Björn Ståbi
Z: Karin Arén
M: 3/4
L: 1/8
K: Am
|: v(A/B/c/d/) ue2 v(cB/c/ | d)>u(e f/e/f) v(d/^c/d) | u(f/e/f/g/ a)>(vf g)>e | vf/d/f/u(e/ e4) |  
v(A/B/c/d/) ue2 v(cB/c/ | d)>u(e f/e/f) v(d/^c/d) | u(f/e/f/g/ a)>(vf g)>e | vf/d/f/u(e/ e4) :|:
u(e>d) (e>^f) (e>d) | v(c>B) c2 A>c | v(c>B) B2 (v^G>B | A2) A>v(B c)>d | 
u(e>d) (e>^f) (e>d) | v(c>B) c2 A>c | v(c>B) B2 v^G>B |1 vB2 A2 v(A/B/c/d/):|2 vB<^G A4 |]

